X: 24568
T: Lupin's
R: waltz
M: 3/4
K: Gmajor
D2 G2 G2|d3 B G2|{G}F2 E2 E2|D4 D2|FE DG B2|dB AF HE2|
B3 G G2|g4 e2|c3 B B2|BA Bc B2|BG ed c2|g4 B2:|
d3 d d2|d4 B2|e3 d d2|e2 f2 e2|d4 B2|A2 BA A2|
G2 B2 G2|A4 F2|G2 BB B2|d3 B A2|D2 G2 A2|G2 G4||

